X:0642
T:The Battle.
M:2/4
L:1/8
Q:1/4=80
I: :: ::
Z:Jack Campin * www.campin.me.uk * 2009
K:D
D<DF>D|E2 B2 |D<DF>D|A2 f2|af d>F|E2TB2 |a<f d>F|A2 d2:|
D<AF<A|E<BG<B|D<AF<d|A2 f2|a<fd>A|B>AB>A|a<f`d>A|A2 d2:|
<end>
<start>
